templates/flag_icons/np.svg

<?xml version="1.0" encoding="UTF-8" standalone="no"?>
<svg width="23px" height="17px" viewBox="0 0 23 17" version="1.1" xmlns="http://www.w3.org/2000/svg" xmlns:xlink="http://www.w3.org/1999/xlink">
    <!-- Generator: Sketch 3.7.2 (28276) - http://www.bohemiancoding.com/sketch -->
    <title>NP</title>
    <desc>Created with Sketch.</desc>
    <defs>
        <linearGradient x1="50%" y1="0%" x2="50%" y2="100%" id="linearGradient-1">
            <stop stop-color="#FFFFFF" offset="0%"></stop>
            <stop stop-color="#F0F0F0" offset="100%"></stop>
        </linearGradient>
        <path d="M0,1.49309635 C0,0.668482007 0.677108765,6.56491164e-10 1.49531555,1.44971316e-09 L1.49531555,1.44971316e-09 C1.77404508,1.71993138e-09 2.18849134,0.125660898 2.41306716,0.27537811 L13.1751914,7.4501276 C13.6307206,7.75381374 13.5469637,8 13.0029699,8 L6,8 L13.2473794,14.341457 C13.6630403,14.7051603 13.5500512,15 12.9931545,15 L1.49824524,15 C0.670787242,15 0,14.3361142 0,13.5069036 L0,1.49309635 Z" id="path-2"></path>
        <filter x="-50%" y="-50%" width="200%" height="200%" filterUnits="objectBoundingBox" id="filter-4">
            <feOffset dx="0" dy="0.5" in="SourceAlpha" result="shadowOffsetOuter1"></feOffset>
            <feGaussianBlur stdDeviation="0.5" in="shadowOffsetOuter1" result="shadowBlurOuter1"></feGaussianBlur>
            <feColorMatrix values="0 0 0 0 0   0 0 0 0 0   0 0 0 0 0  0 0 0 0.16 0" type="matrix" in="shadowBlurOuter1"></feColorMatrix>
        </filter>
        <linearGradient x1="50%" y1="0%" x2="50%" y2="100%" id="linearGradient-5">
            <stop stop-color="#EF1B44" offset="0%"></stop>
            <stop stop-color="#DD153C" offset="100%"></stop>
        </linearGradient>
        <linearGradient x1="50%" y1="0%" x2="50%" y2="100%" id="linearGradient-6">
            <stop stop-color="#0443A8" offset="0%"></stop>
            <stop stop-color="#003893" offset="100%"></stop>
        </linearGradient>
        <path d="M0,0 L1.49531555,0 C1.77404508,0 2.18849134,0.125660896 2.41306716,0.275378108 L13.1751914,7.4501276 C13.6307206,7.75381374 13.5469637,8 13.0029699,8 L6,8 L13.2473794,14.341457 C13.6630403,14.7051603 13.5500512,15 12.9931545,15 L0,15 L0,0 Z" id="path-7"></path>
        <mask id="mask-8" maskContentUnits="userSpaceOnUse" maskUnits="objectBoundingBox" x="0" y="0" width="13.4979042" height="15" fill="white">
            <use xlink:href="#path-7"></use>
        </mask>
        <path d="M0,1.49309635 C0,0.668482007 0.677108765,0 1.49531555,0 L1.49531555,0 C1.77404508,0 2.18849134,0.125660896 2.41306716,0.275378108 L13.1751914,7.4501276 C13.6307206,7.75381374 13.5469637,8 13.0029699,8 L6,8 L13.2473794,14.341457 C13.6630403,14.7051603 13.5500512,15 12.9931545,15 L1.49824524,15 C0.670787242,15 0,14.3361142 0,13.5069036 L0,1.49309635 Z" id="path-9"></path>
        <path d="M2.86095923,5.85123059 C2.57195443,5.77222387 2.30554809,5.66401343 2.06999993,5.53210575 C2.3029873,6.37838213 3.07812065,7 3.99844063,7 C4.9187606,7 5.69389395,6.37838213 5.92688132,5.53210575 C5.69198348,5.66364925 5.42639761,5.77162618 5.13831521,5.85057555 L4.75,5.5 L5.3858193,4.92597485 L4.53033009,4.96966991 L4.57402515,4.1141807 L4,4.75 L3.42597485,4.1141807 L3.46966991,4.96966991 L2.6141807,4.92597485 L3.25,5.5 L2.86095923,5.85123059 Z M4,12 L3.23463314,12.8477591 L3.29289322,11.7071068 L2.15224093,11.7653669 L3,11 L2.15224093,10.2346331 L3.29289322,10.2928932 L3.23463314,9.15224093 L4,10 L4.76536686,9.15224093 L4.70710678,10.2928932 L5.84775907,10.2346331 L5,11 L5.84775907,11.7653669 L4.70710678,11.7071068 L4.76536686,12.8477591 L4,12 Z" id="path-11"></path>
        <filter x="-50%" y="-50%" width="200%" height="200%" filterUnits="objectBoundingBox" id="filter-12">
            <feOffset dx="0" dy="0.5" in="SourceAlpha" result="shadowOffsetOuter1"></feOffset>
            <feColorMatrix values="0 0 0 0 0   0 0 0 0 0   0 0 0 0 0  0 0 0 0.06 0" type="matrix" in="shadowOffsetOuter1"></feColorMatrix>
        </filter>
    </defs>
    <g id="Flag-Kit" stroke="none" stroke-width="1" fill="none" fill-rule="evenodd">
        <g id="NP">
            <g id="Rectangle-1-Copy" transform="translate(1.000000, 1.000000)">
                <mask id="mask-3" fill="white">
                    <use xlink:href="#path-2"></use>
                </mask>
                <g id="Mask">
                    <use fill="black" fill-opacity="1" filter="url(#filter-4)" xlink:href="#path-2"></use>
                    <use fill="url(#linearGradient-1)" fill-rule="evenodd" xlink:href="#path-2"></use>
                </g>
                <g id="Mask-Copy" mask="url(#mask-3)" stroke="url(#linearGradient-6)" stroke-width="2" fill="url(#linearGradient-5)" stroke-linejoin="round">
                    <use mask="url(#mask-8)" xlink:href="#path-7"></use>
                </g>
                <mask id="mask-10" fill="white">
                    <use xlink:href="#path-9"></use>
                </mask>
                <g id="Depth"></g>
                <g id="Star-93" mask="url(#mask-10)">
                    <use fill="black" fill-opacity="1" filter="url(#filter-12)" xlink:href="#path-11"></use>
                    <use fill="url(#linearGradient-1)" fill-rule="evenodd" xlink:href="#path-11"></use>
                </g>
            </g>
        </g>
    </g>
</svg>

<svg width="23" height="17" viewBox="0 0 23 17" xmlns="http://www.w3.org/2000/svg" xmlns:xlink="http://www.w3.org/1999/xlink"><title>NP</title><defs><linearGradient x1="50%" y1="0%" x2="50%" y2="100%" id="d"><stop stop-color="#FFF" offset="0%"/><stop stop-color="#F0F0F0" offset="100%"/></linearGradient><path d="M0 1.5C0 .66.68 0 1.5 0c.27 0 .69.13.91.28l10.77 7.17c.45.3.37.55-.18.55H6l7.25 6.34c.41.37.3.66-.26.66H1.5A1.5 1.5 0 0 1 0 13.5v-12z" id="b"/><filter x="-50%" y="-50%" width="200%" height="200%" filterUnits="objectBoundingBox" id="c"><feOffset dy=".5" in="SourceAlpha" result="shadowOffsetOuter1"/><feGaussianBlur stdDeviation=".5" in="shadowOffsetOuter1" result="shadowBlurOuter1"/><feColorMatrix values="0 0 0 0 0 0 0 0 0 0 0 0 0 0 0 0 0 0 0.16 0" in="shadowBlurOuter1"/></filter><linearGradient x1="50%" y1="0%" x2="50%" y2="100%" id="g"><stop stop-color="#EF1B44" offset="0%"/><stop stop-color="#DD153C" offset="100%"/></linearGradient><linearGradient x1="50%" y1="0%" x2="50%" y2="100%" id="f"><stop stop-color="#0443A8" offset="0%"/><stop stop-color="#003893" offset="100%"/></linearGradient><path d="M0 0h1.5c.27 0 .69.13.91.28l10.77 7.17c.45.3.37.55-.18.55H6l7.25 6.34c.41.37.3.66-.26.66H0V0z" id="a"/><mask id="h" x="0" y="0" width="13.5" height="15" fill="#fff"><use xlink:href="#a"/></mask><path d="M0 1.5C0 .66.68 0 1.5 0c.27 0 .69.13.91.28l10.77 7.17c.45.3.37.55-.18.55H6l7.25 6.34c.41.37.3.66-.26.66H1.5A1.5 1.5 0 0 1 0 13.5v-12z" id="i"/><path d="M2.86 5.85a3.52 3.52 0 0 1-.79-.32 2 2 0 0 0 3.86 0c-.24.13-.5.24-.8.32l-.38-.35.64-.57-.86.04.04-.86-.57.64-.57-.64.04.86-.86-.04.64.57-.39.35zM4 12l-.77.85.06-1.14-1.14.06L3 11l-.85-.77 1.14.06-.06-1.14L4 10l.77-.85-.06 1.14 1.14-.06L5 11l.85.77-1.14-.06.06 1.14L4 12z" id="l"/><filter x="-50%" y="-50%" width="200%" height="200%" filterUnits="objectBoundingBox" id="k"><feOffset dy=".5" in="SourceAlpha" result="shadowOffsetOuter1"/><feColorMatrix values="0 0 0 0 0 0 0 0 0 0 0 0 0 0 0 0 0 0 0.06 0" in="shadowOffsetOuter1"/></filter></defs><g transform="translate(1 1)" fill="none" fill-rule="evenodd"><mask id="e" fill="#fff"><use xlink:href="#b"/></mask><use fill="#000" filter="url(#c)" xlink:href="#b"/><use fill="url(#d)" xlink:href="#b"/><g mask="url(#e)" stroke="url(#f)" stroke-width="2" fill="url(#g)" stroke-linejoin="round"><use mask="url(#h)" xlink:href="#a"/></g><mask id="j" fill="#fff"><use xlink:href="#i"/></mask><g mask="url(#j)"><use fill="#000" filter="url(#k)" xlink:href="#l"/><use fill="url(#d)" xlink:href="#l"/></g></g></svg>
